X: 1804
T: Pied Butcher Bird Polka
C:John Meredith, 1920 - 2001
B: australian traditional tunes wiki
M:2/4
L:1/16
R: Polka
Q: 1/4=100
K:D
V:1 
A|:"D"d2d2 f2f2|a2f2 f2-f2|"Em"{e} g2e2 e2-e2|"D"{d} f2d2 d4|
{A} d2d2 f2f2|a2f2 f3 g|"Em"a2a2 gfe2|"D"d6-dA:|
|:"D"d'4d'4|ab a3 f3|ga g3 "A7"e3|gb a3 "D"f3|
d'4d'4|ab a3 f3|a2a2 "Em"gfe2|"D"d4-d2z2:|
% abcbook-tune_id 6342d53ad78ac1674fee9851


% abcbook-boost 0
% abcbook-tablature 
% abcbook-transpose 
% abcbook-lastupdated 1665324384960
% abcbook-soundfonts 
% abcbook-repeats 1
% NFF Book 2007

